Simply-Orange-Circles/scalable/apps/gksu-root-terminal.svg

<?xml version="1.0" encoding="UTF-8" standalone="no"?>
<svg
   xmlns:dc="http://purl.org/dc/elements/1.1/"
   xmlns:cc="http://creativecommons.org/ns#"
   xmlns:rdf="http://www.w3.org/1999/02/22-rdf-syntax-ns#"
   xmlns:svg="http://www.w3.org/2000/svg"
   xmlns="http://www.w3.org/2000/svg"
   xmlns:sodipodi="http://sodipodi.sourceforge.net/DTD/sodipodi-0.dtd"
   xmlns:inkscape="http://www.inkscape.org/namespaces/inkscape"
   width="48"
   height="48"
   viewBox="0 0 12.7 12.7"
   version="1.1"
   id="svg6"
   sodipodi:docname="gksu-root-terminal.svg"
   inkscape:version="0.92.4 (5da689c313, 2019-01-14)">
  <metadata
     id="metadata12">
    <rdf:RDF>
      <cc:Work
         rdf:about="">
        <dc:format>image/svg+xml</dc:format>
        <dc:type
           rdf:resource="http://purl.org/dc/dcmitype/StillImage" />
        <dc:title></dc:title>
      </cc:Work>
    </rdf:RDF>
  </metadata>
  <defs
     id="defs10" />
  <sodipodi:namedview
     pagecolor="#ffffff"
     bordercolor="#666666"
     borderopacity="1"
     objecttolerance="10"
     gridtolerance="10"
     guidetolerance="10"
     inkscape:pageopacity="0"
     inkscape:pageshadow="2"
     inkscape:window-width="1087"
     inkscape:window-height="480"
     id="namedview8"
     showgrid="false"
     inkscape:zoom="4.9166667"
     inkscape:cx="2.1355932"
     inkscape:cy="24"
     inkscape:window-x="0"
     inkscape:window-y="25"
     inkscape:window-maximized="0"
     inkscape:current-layer="svg6" />
  <path
     d="m 6.344,0.073 a 6.29,6.29 0 0 0 -6.29,6.29 6.29,6.29 0 0 0 6.29,6.288 6.29,6.29 0 0 0 6.29,-6.289 6.29,6.29 0 0 0 -6.29,-6.29 z M 6.326,1.009 A 5.407,5.407 0 0 1 11.733,6.416 5.407,5.407 0 0 1 6.326,11.823 5.407,5.407 0 0 1 0.92,6.416 5.407,5.407 0 0 1 6.326,1.01 Z"
     id="path2"
     inkscape:connector-curvature="0"
     style="fill:#ff7f2a" />
  <path
     d="m 6.461,7.68 a 0.339,0.528 0 1 0 0,1.056 h 3.117 a 0.339,0.528 0 1 0 0,-1.055 z M 3.498,3.729 A 0.339,0.528 45 0 0 2.929,4.546 L 4.716,6.33 2.929,8.12 A 0.528,0.339 45 1 0 3.675,8.866 L 5.88,6.66 A 0.528,0.339 45 0 0 5.933,6.574 0.528,0.339 45 0 0 5.933,6.573 0.184,0.33 0 0 0 5.997,6.326 0.184,0.33 0 0 0 5.922,6.06 0.339,0.528 45 0 0 5.88,6.001 L 3.675,3.798 A 0.339,0.528 45 0 0 3.498,3.728 Z"
     id="path4"
     inkscape:connector-curvature="0"
     style="opacity:0.75;fill:#800080" />
</svg>

<svg xmlns="http://www.w3.org/2000/svg" width="48" height="48" viewBox="0 0 12.7 12.7"><path fill="#ff7f2a" d="M6.34.07a6.29 6.29 0 0 0-6.29 6.3 6.29 6.29 0 0 0 6.3 6.28 6.29 6.29 0 0 0 6.28-6.29A6.29 6.29 0 0 0 6.34.07zm-.01.94a5.4 5.4 0 0 1 5.4 5.4 5.4 5.4 0 0 1-5.4 5.41 5.4 5.4 0 0 1-5.41-5.4A5.4 5.4 0 0 1 6.32 1z"/><path fill="purple" d="M6.46 7.68a.34.53 0 1 0 0 1.06h3.12a.34.53 0 1 0 0-1.06zM3.5 3.73a.34.53 45 0 0-.57.82l1.79 1.78-1.8 1.79a.53.34 45 1 0 .75.75l2.21-2.21a.53.34 45 0 0 .05-.09.18.33 0 0 0 .07-.24.18.33 0 0 0-.08-.27.34.53 45 0 0-.04-.06l-2.2-2.2a.34.53 45 0 0-.18-.07z" opacity=".75"/></svg>
